icons/lines/backward-item-one.svg

<svg xmlns="http://www.w3.org/2000/svg" width="24" height="24" viewBox="0 0 24 24" fill="none" stroke="currentColor" stroke-width="2" stroke-linecap="round" stroke-linejoin="round" >
  <path d="M22 5.14999V7.85001C22 10.1 21.1 11 18.85 11H16.15C13.9 11 13 10.1 13 7.85001V5.14999C13 2.89999 13.9 2 16.15 2H18.85C21.1 2 22 2.89999 22 5.14999Z"/>
  <path d="M11 16.15V18.85C11 21.1 10.1 22 7.85 22H5.15C2.9 22 2 21.1 2 18.85V16.15C2 13.9 2.9 13 5.15 13H7.85C10.1 13 11 13.9 11 16.15Z"/>
  <path d="M17.3801 11V13.62C17.3801 16.31 16.3101 17.38 13.6201 17.38H11.0001V16.15C11.0001 13.9 10.1001 13 7.85011 13H6.62012V10.38C6.62012 7.69 7.69011 6.62 10.3801 6.62H13.0001V7.85001C13.0001 10.1 13.9001 11 16.1501 11H17.3801Z"/>
  </svg>

<svg xmlns="http://www.w3.org/2000/svg" width="24" height="24" viewBox="0 0 24 24" fill="none" stroke="currentColor" stroke-width="2" stroke-linecap="round" stroke-linejoin="round">
  <path d="M11 16.15C11 13.9 10.1 13 7.85 13h-2.7C2.9 13 2 13.9 2 16.15v2.7C2 21.1 2.9 22 5.15 22h2.7c2.25 0 3.15-.9 3.15-3.15zC11 13.9 10.1 13 7.85 13" />
  <path d="M13 7.85c0 2.25.9 3.15 3.15 3.15" />
  <path d="M16.15 11C13.9 11 13 10.1 13 7.85v-2.7C13 2.9 13.9 2 16.15 2h2.7C21.1 2 22 2.9 22 5.15v2.7c0 2.25-.9 3.15-3.15 3.15z" />
  <path d="M17.38 11v2.62c0 2.69-1.07 3.76-3.76 3.76H11" />
  <path d="M6.62 13v-2.62c0-2.69 1.07-3.76 3.76-3.76H13" />
</svg>
